X: 1068
T: Bunclody (A30)
N: page A30
N: heptatonic
M: 3/4
L: 1/8
K: D
"D" FG|A2 d2 c2| dA F2 DF|"A"E4 DC|\
"D"D6-|D4 cd| "A"e2A2dc|
"G"B2 "D"A2 F2|"G"G2 "D"D2 F2|\
"A"E6-|E4 "A7"cd|e2 A2 "D"dc|B2 A2 FG|
AF D2 F2|"A"E6-|E4 "A7" FG|\
"D"A3d c2|dA F2 DF|"A7"E4 DC|"D"D6-|D4|
